X:1
L:1/4
Q:1/4=200
M:6/8
V:1
V:2 clef=bass
K:F
[V:1] [CEG]3/4 z z/4 F/G/ | [CFA]3/4 z z/4 G/F/ | [^CE]3/4 z/4 [^CF]3/4 z/4 [^CE]3/4 z/4 | [F,A,D]3/4 z z/4 E/=C/ |
[V:2] [C,,C,]3/4 z/4 [C,,C,]/ [C,,C,]/[C,,C,]/[C,,C,]/ | [F,,F,]3/4 z/4 [F,,F,]/ [F,,F,]/[F,,F,]/[F,,F,]/ | [A,,,A,,]3/4 z/4 [A,,,A,,]/ [A,,,A,,]/[A,,,A,,]/[A,,,A,,]/ | [D,,D,]3/4 z/4 [D,,D,]/ [D,,D,]3/4 z/4 [D,,D,]/ |